X:1
T:The Deep Green Pool
M:6/8
L:1/8
R:set dance
Z:Harry Seaman
Z:To David James
K:G
(3DEF|G2G B,DG|EGc ecA|B,DG A,CF| G,B,D AFD|!
G2G B,DG|Bdg bgd|ecA DFA|G3 G2:||!
|:g/2a/2|bgd B2b|c'af dcA|A,A,C F2A|ccf afd|!
bgb dBd|geg ecA|A,CF B,DB|cAF AFD|!
G2G gdB|gdB cAF|DFA cAF|cAF afd|!
bgb Bdg|ecA FAc|dBG DGB|cAF Dga|!
bgd B2b|c'af dcA|B,DG A,CF|G,B,D G2:||
